public/images/no-transactions.svg

<svg width="144" height="104" viewBox="0 0 144 104" fill="none" xmlns="http://www.w3.org/2000/svg">
<path fill-rule="evenodd" clip-rule="evenodd" d="M72 10C97.405 10 118 30.595 118 56C118 81.404 97.405 102 72 102C46.596 102 26 81.404 26 56C26 30.595 46.596 10 72 10Z" class="illustration-background-fill"/>
<path fill-rule="evenodd" clip-rule="evenodd" d="M42 94.406C42 89.2108 46.212 85 51.407 85C56.6026 85 60.813 89.2104 60.813 94.406C60.813 99.6009 56.6023 103.812 51.407 103.812C46.2123 103.812 42 99.6005 42 94.406ZM56.813 94.406C56.813 91.4196 54.3934 89 51.407 89C48.4209 89 46 91.4202 46 94.406C46 97.3912 48.4213 99.812 51.407 99.812C54.393 99.812 56.813 97.3918 56.813 94.406Z" class="illustration-light-fill"/>
<path fill-rule="evenodd" clip-rule="evenodd" d="M79.204 0.000701904C80.2174 0.000701904 81.1098 0.670605 81.3913 1.64768L81.4704 1.92083L81.7 2.68319L81.8863 3.25666L81.9234 3.36497L82.072 3.77794L82.147 3.97268L82.2227 4.15992L82.3773 4.51284C83.0512 5.96583 83.8869 6.67127 85.5658 7.31225L85.8241 7.408L86.2521 7.55623L86.714 7.70529L87.2115 7.8571L87.7467 8.0136C88.7333 8.28954 89.407 9.18937 89.407 10.2047C89.407 11.1636 88.8078 12.0107 87.9203 12.3385L87.7607 12.3908L87.2238 12.5478L86.7247 12.7001L86.1509 12.8867L85.6294 13.0727C83.9265 13.7138 83.078 14.4107 82.3998 15.8478L82.2993 16.069L82.1468 16.4364L81.9973 16.8338L81.9231 17.0444L81.7745 17.4905L81.6241 17.9714L81.3908 18.7624C81.1098 19.7378 80.2174 20.4077 79.204 20.4077C78.1925 20.4077 77.3075 19.7416 77.0168 18.761L76.9376 18.4878L76.7078 17.7252L76.5585 17.262L76.4101 16.8328C75.6977 14.8539 74.9482 13.9759 73.2052 13.2425L72.9721 13.1475L72.5746 12.9979L72.1451 12.8493L71.6816 12.6998L71.1823 12.5475L70.6453 12.3905C69.6717 12.11 69 11.22 69 10.2047C69 9.18937 69.6737 8.28954 70.6464 8.01756L70.9197 7.93836L71.4375 7.78399L71.9185 7.63338L72.471 7.44745L72.5752 7.41027L72.9727 7.26057C74.6784 6.58703 75.4863 5.82301 76.1703 4.19257L76.2629 3.9648L76.4129 3.56612L76.5617 3.13534L76.6364 2.90731L76.7874 2.42473L77.0216 1.63097C77.3075 0.66681 78.1925 0.000701904 79.204 0.000701904Z" class="illustration-light-fill"/>
<path d="M48.1825 26.4014C49.2369 26.4014 50.1007 27.2173 50.177 28.2521L50.1825 28.4014V47.2874C50.1825 47.9293 49.8748 48.5286 49.3613 48.9031L49.2287 48.992L37.0787 56.449C36.1373 57.0267 34.9057 56.732 34.3279 55.7906C33.7791 54.8962 34.0176 53.74 34.85 53.1313L34.9863 53.0398L46.1818 46.168L46.1825 28.4014C46.1825 27.347 46.9984 26.4832 48.0332 26.4069L48.1825 26.4014Z" class="illustration-light-fill"/>
<path fill-rule="evenodd" clip-rule="evenodd" d="M18.0005 47.4153C18.0005 30.7456 31.5131 17.2323 48.1825 17.2323C64.8521 17.2323 78.3655 30.7457 78.3655 47.4153C78.3655 64.0842 64.8517 77.5983 48.1825 77.5983C31.5134 77.5983 18.0005 64.0844 18.0005 47.4153ZM74.3655 47.4153C74.3655 32.9549 62.6429 21.2323 48.1825 21.2323C33.7223 21.2323 22.0005 32.9547 22.0005 47.4153C22.0005 61.8753 33.7226 73.5983 48.1825 73.5983C62.6426 73.5983 74.3655 61.8751 74.3655 47.4153Z" class="illustration-light-fill"/>
<path d="M89.9157 23.6731L90.0429 23.7899L108.928 42.6749C109.709 43.4559 109.709 44.7223 108.928 45.5033C108.188 46.2433 107.012 46.2822 106.227 45.6201L106.099 45.5033L90.6277 30.0311L90.6285 92.1448C90.6285 93.2494 89.733 94.1448 88.6285 94.1448C87.5741 94.1448 86.7103 93.3289 86.6339 92.2941L86.6285 92.1448L86.6277 30.0311L71.1579 45.5033C70.4179 46.2433 69.2424 46.2822 68.4567 45.6201L68.3294 45.5033C67.5895 44.7634 67.5506 43.5879 68.2126 42.8021L68.3294 42.6749L87.2144 23.7899C87.9544 23.0499 89.1299 23.011 89.9157 23.6731Z" class="illustration-main-fill"/>
<path d="M123.078 23.2043C124.132 23.2043 124.996 24.0202 125.072 25.055L125.078 25.2043L125.077 87.3143L140.549 71.8457C141.289 71.1058 142.464 71.0669 143.25 71.729L143.377 71.8458C144.117 72.5858 144.156 73.7613 143.494 74.5471L143.377 74.6743L124.491 93.5583C123.751 94.2981 122.576 94.3371 121.79 93.675L121.663 93.5582L102.779 74.6742C101.998 73.8932 101.998 72.6268 102.779 71.8458C103.519 71.1058 104.694 71.0669 105.48 71.7289L105.607 71.8458L121.077 87.3143L121.078 25.2043C121.078 24.0997 121.973 23.2043 123.078 23.2043Z" class="illustration-main-fill"/>
</svg>

<svg xmlns="http://www.w3.org/2000/svg" width="345" height="250" viewBox="0 0 144 104">
    <g fill="none" fill-rule="evenodd">
        <g>
            <g>
                <path d="M0 104V0h144v104H0z" transform="translate(-664 -200) translate(664 200)"/>
                <path fill="#F0EFEE" d="M72 10c25.405 0 46 20.595 46 46 0 25.404-20.595 46-46 46-25.404 0-46-20.596-46-46 0-25.405 20.596-46 46-46" transform="translate(-664 -200) translate(664 200)"/>
                <path fill="#B2B5B2" fill-rule="nonzero" d="M51.407 85C46.212 85 42 89.21 42 94.406c0 5.194 4.212 9.406 9.407 9.406s9.406-4.211 9.406-9.406c0-5.196-4.21-9.406-9.406-9.406zm0 4c2.986 0 5.406 2.42 5.406 5.406 0 2.986-2.42 5.406-5.406 5.406-2.986 0-5.407-2.42-5.407-5.406C46 91.42 48.42 89 51.407 89z" transform="translate(-664 -200) translate(664 200)"/>
                <path fill="#B2B5B2" d="M79.204 0c1.013 0 1.906.67 2.187 1.648l.08.273.229.762.186.574.037.108.149.413.075.195.076.187.154.353c.674 1.453 1.51 2.158 3.189 2.8l.258.095.428.148.462.15.498.151.535.157c.986.276 1.66 1.175 1.66 2.19 0 .96-.6 1.807-1.487 2.134l-.16.053-.536.157-.5.152-.573.187-.522.186c-1.702.64-2.551 1.338-3.23 2.775l-.1.221-.152.367-.15.398-.074.21-.149.446-.15.481-.233.791c-.281.976-1.174 1.646-2.187 1.646-1.011 0-1.896-.666-2.187-1.647l-.08-.273-.23-.763-.148-.463-.149-.43c-.712-1.978-1.462-2.856-3.205-3.59l-.233-.094-.397-.15-.43-.149-.463-.15-.5-.151-.537-.157C69.672 12.11 69 11.22 69 10.205c0-1.016.674-1.915 1.646-2.187l.274-.08.518-.154.48-.15.553-.187.104-.037.398-.15c1.705-.673 2.513-1.437 3.197-3.067l.093-.228.15-.399.149-.43.074-.229.151-.482.235-.794c.286-.964 1.17-1.63 2.182-1.63z" transform="translate(-664 -200) translate(664 200)"/>
                <path fill="#B2B5B2" fill-rule="nonzero" d="M48.183 26.401c1.054 0 1.918.816 1.994 1.851l.006.15v18.885c0 .642-.308 1.242-.822 1.616l-.132.089-12.15 7.457c-.942.578-2.173.283-2.75-.658-.55-.895-.311-2.051.521-2.66l.137-.091 11.195-6.872V28.401c0-1.054.817-1.918 1.851-1.994l.15-.006z" transform="translate(-664 -200) translate(664 200)"/>
                <path fill="#B2B5B2" fill-rule="nonzero" d="M48.183 17.232C31.513 17.232 18 30.746 18 47.415c0 16.67 13.513 30.183 30.182 30.183 16.669 0 30.183-13.514 30.183-30.183 0-16.67-13.514-30.183-30.183-30.183zm0 4c14.46 0 26.183 11.723 26.183 26.183 0 14.46-11.723 26.183-26.183 26.183C33.723 73.598 22 61.875 22 47.415c0-14.46 11.721-26.183 26.182-26.183z" transform="translate(-664 -200) translate(664 200)"/>
                <path fill="#008C73" fill-rule="nonzero" d="M89.916 23.673l.127.117 18.885 18.885c.78.78.78 2.047 0 2.828-.74.74-1.916.78-2.701.117l-.128-.117-15.471-15.472v62.114c0 1.104-.895 2-2 2-1.054 0-1.918-.816-1.994-1.85l-.006-.15V30.03l-15.47 15.472c-.74.74-1.916.78-2.701.117l-.128-.117c-.74-.74-.778-1.915-.116-2.7l.116-.128L87.214 23.79c.74-.74 1.916-.779 2.702-.117zM123.078 23.204c1.054 0 1.918.816 1.994 1.851l.006.15-.001 62.11 15.472-15.47c.74-.74 1.915-.778 2.7-.116l.128.117c.74.74.779 1.915.117 2.701l-.117.127-18.886 18.884c-.74.74-1.915.78-2.701.117l-.127-.117-18.884-18.884c-.781-.78-.781-2.047 0-2.828.74-.74 1.915-.78 2.7-.117l.128.117 15.47 15.468v-62.11c0-1.104.896-2 2-2z" transform="translate(-664 -200) translate(664 200)"/>
            </g>
        </g>
    </g>
</svg>
